!!!COM:	Prokofiev
!!!OTL:	Pro-35/25/lignes 1-3
**kern	**kern	**dynam
*part1	*part1	*part1
*staff2	*staff1	*
*I"Piano	*	*
*I'Pno.	*	*
*clefF4	*clefF4	*
*k[b-e-]	*k[b-e-]	*
*M7/8	*M7/8	*
=1	=1	=1
8r	4D 4F 4B-	mp
8BBB- 8BB-	.	.
4CC#^ 4C#	8r	.
.	4D 4F 4B-	.
8BBB- 8BB-	.	.
4r	8BB-L 8D 8F	.
.	8BB-J 8D 8F	.
=2	=2	=2
8r	4BB- 4D 4F	.
8DD 8D	.	.
8r	4BB- 4D 4F	.
8EE# 8E#	.	.
8r	8BB- 8D 8F	.
4r	8BB-L 8E- 8G	.
.	8CJ 8E- 8G	.
=3	=3	=3
8r	4C 4F 4A	.
8BBB- 8BB-	.	.
4CC#^ 4C#	8r	.
.	4D 4F 4B-	.
8BBB- 8BB-	.	.
4r	8DL 8F 8B-	.
.	8CJ 8E- 8B-	.
=4	=4	=4
8r	4F 4G 4B-	.
8DD 8D	.	.
8r	4G- 4B- 4c	.
8EE 8E	.	.
8r	8F 8A 8c	.
4r	8EL 8G# 8c	.
.	8FJ 8A 8c	.
=5	=5	=5
8r	4G- 4B- 4c	.
8BBB- 8BB-	.	.
4CC#^ 4C#	8r	.
.	4G 4B- 4e-	.
8BBB- 8BB-	.	.
4r	8GL 8B- 8d	.
.	8A-J 8B- 8c#	.
=6	=6	=6
!!linebreak:original
8r	4G 4B- 4d	.
8DD 8D	.	.
*	*clefG2	*
8r	4A- 4e- 4g	.
8EE 8E	.	.
8r	8A 8e- 8g	.
4r	8B-L 8e- 8g	.
.	8B-J 8e- 8a-	.
=7	=7	=7
2..r	4c 4e- 4an	.
.	8r	.
.	4B- 4e- 4g	.
.	8AL 8e- 8g	.
.	8A-J 8e- 8g	.
=8	=8	=8
2..r	4G 4e- 4g	.
.	4e- 4cc 4dd	.
.	8c- 8e- 8g	.
.	8B-L 8e- 8g	.
.	8BJ 8e- 8a-	.
=9	=9	=9
2..r	4c 4e- 4an	.
.	8r	.
.	4B- 4e- 4g	.
.	8AL 8e- 8g	.
.	8A-J 8e- 8g	.
=10	=10	=10
2..r	4G 4e- 4g	.
.	4e- 4cc 4dd	.
.	8c- 8e- 8g	.
.	8B-L 8e- 8g	.
.	8BJ 8e- 8a-	.
=11	=11	=11
!!linebreak:original
8r	4G 4A 4e- 4a	.
8BBB- 8BB-	.	.
4CC#^ 4C#	8r	.
.	4G 4A 4e- 4a	.
8BBB- 8BB-	.	.
4r	8GL 8A 8e- 8a-	.
.	8GJ 8A 8e- 8g	.
=12	=12	=12
8r	4G 4A 4d# 4f#	.
8BBB 8BB	.	.
8r	4G 4A 4d 4f#	.
8FF# 8F#	.	.
8r	8G 8A 8d 8f#	.
4r	8GL 8A 8d 8g	.
.	8GJ 8A 8d 8g#	.
=13	=13	=13
8r	4G 4A 4e- 4a	.
8BBB- 8BB-	.	.
4CC#^ 4C#	8r	.
.	4G 4A 4e- 4a	.
8BBB- 8BB-	.	.
4r	8GL 8A 8e- 8a-	.
.	8GJ 8A 8e- 8g	.
=14	=14	=14
8r	4G 4A 4d# 4f#	.
8BBB 8BB	.	.
8r	4G 4A 4d 4f#	.
8FF# 8F#	.	.
8r	8G 8A 8d 8f#	.
4r	8GL 8A 8d 8g	.
.	8GJ 8A 8d 8g#	.
==	==	==
*-	*-	*-
!!!system-decoration: {(s1,s2)}
!!!YEM:	Copyright © Natalie Dietterich
